X:80
T:No.80 Dusty Millar
C:slip jig
M:9/8
L:1/8
K:A
c2ee2B cBA|F2BB2c dcB|
c2ee2d cBA|E2AA2B cBA:|
c2ef2g aga|b2BB2c dcB|
c2ef2ga2b|a2fe2d cBA:|
